X:1
T:Love-Links' -- Jig
R:jig
B:Ryan's Mammoth Collection
Z: Contributed by Ray Davies, ray:davies99.freeserve.co.uk
M:6/8
K:A
ecA {B}AGA|{B}AGA cd^d|ecA AGA|FBA GFE|
ecA AGA|AGA cde|fga edc|BcB BGE::
cde efe|efe edc|def fgf|fgf fed|
cde efe|efe efg|agf edc|BcB BGE:|
